build/img/sprite_auto.svg

<svg xmlns="http://www.w3.org/2000/svg" xmlns:xlink="http://www.w3.org/1999/xlink"><symbol id="logo-desktop" viewBox="0 0 87 20">
<path d="M0.676 5.168C0.676 3.69467 1.03133 2.568 1.742 1.788C2.45267 0.990666 3.50133 0.592 4.888 0.592C6.27467 0.592 7.32333 0.990666 8.034 1.788C8.74467 2.568 9.1 3.69467 9.1 5.168V5.74H6.396V4.986C6.396 3.79 5.91933 3.192 4.966 3.192C4.01267 3.192 3.536 3.79 3.536 4.986C3.536 5.662 3.72667 6.30333 4.108 6.91C4.48933 7.49933 4.94867 8.03667 5.486 8.522C6.04067 9.00733 6.59533 9.51867 7.15 10.056C7.70467 10.576 8.17267 11.2347 8.554 12.032C8.93533 12.812 9.126 13.6787 9.126 14.632C9.126 16.1053 8.762 17.2407 8.034 18.038C7.306 18.818 6.24867 19.208 4.862 19.208C3.47533 19.208 2.418 18.818 1.69 18.038C0.962 17.2407 0.598 16.1053 0.598 14.632V13.514H3.302V14.814C3.302 15.9927 3.796 16.582 4.784 16.582C5.772 16.582 6.266 15.9927 6.266 14.814C6.266 14.138 6.07533 13.5053 5.694 12.916C5.31267 12.3093 4.84467 11.7633 4.29 11.278C3.75267 10.7927 3.20667 10.29 2.652 9.77C2.09733 9.23267 1.62933 8.574 1.248 7.794C0.866667 6.99667 0.676 6.12133 0.676 5.168ZM11.1546 0.799999H14.0146V14.84C14.0146 16.0187 14.5086 16.608 15.4966 16.608C16.4846 16.608 16.9786 16.0187 16.9786 14.84V0.799999H19.6826V14.658C19.6826 16.1313 19.3186 17.2667 18.5906 18.064C17.8626 18.844 16.8053 19.234 15.4186 19.234C14.0319 19.234 12.9746 18.844 12.2466 18.064C11.5186 17.2667 11.1546 16.1313 11.1546 14.658V0.799999ZM26.376 0.799999C29.2187 0.799999 30.64 2.29933 30.64 5.298V7.664C30.64 10.6627 29.2187 12.162 26.376 12.162H25.024V19H22.164V0.799999H26.376ZM26.376 3.4H25.024V9.562H26.376C26.844 9.562 27.1907 9.432 27.416 9.172C27.6587 8.912 27.78 8.47 27.78 7.846V5.116C27.78 4.492 27.6587 4.05 27.416 3.79C27.1907 3.53 26.844 3.4 26.376 3.4ZM35.3448 3.4V8.47H39.2708V11.07H35.3448V16.4H40.2848V19H32.4848V0.799999H40.2848V3.4H35.3448ZM51.469 19H48.557C48.3837 18.48 48.297 17.7347 48.297 16.764V13.904C48.297 13.072 48.1497 12.4827 47.855 12.136C47.5604 11.772 47.0837 11.59 46.425 11.59H45.437V19H42.577V0.799999H46.893C48.3664 0.799999 49.441 1.14667 50.117 1.84C50.793 2.516 51.131 3.56467 51.131 4.986V6.416C51.131 8.288 50.507 9.51867 49.259 10.108C50.5244 10.6453 51.157 11.9367 51.157 13.982V16.79C51.157 17.778 51.261 18.5147 51.469 19ZM46.815 3.4H45.437V8.99H46.555C47.127 8.99 47.5517 8.84267 47.829 8.548C48.1237 8.25333 48.271 7.75933 48.271 7.066V5.272C48.271 4.024 47.7857 3.4 46.815 3.4ZM57.848 11.46V8.86H61.852V14.632C61.852 16.1053 61.488 17.2407 60.76 18.038C60.032 18.818 58.9746 19.208 57.588 19.208C56.2013 19.208 55.144 18.818 54.416 18.038C53.688 17.2407 53.324 16.1053 53.324 14.632V5.168C53.324 3.69467 53.688 2.568 54.416 1.788C55.144 0.990666 56.2013 0.592 57.588 0.592C58.9746 0.592 60.032 0.990666 60.76 1.788C61.488 2.568 61.852 3.69467 61.852 5.168V6.936H59.148V4.986C59.148 3.79 58.654 3.192 57.666 3.192C56.678 3.192 56.184 3.79 56.184 4.986V14.814C56.184 15.9927 56.678 16.582 57.666 16.582C58.654 16.582 59.148 15.9927 59.148 14.814V11.46H57.848ZM66.506 19V12.968L62.892 0.799999H65.882L68.066 9.094L70.25 0.799999H72.98L69.366 12.968V19H66.506ZM78.6086 0.799999L80.7146 13.722L82.6646 0.799999H86.6426V19H83.9386V5.948L81.9626 19H79.2586L77.1266 6.13V19H74.6306V0.799999H78.6086Z" fill="white"/>
</symbol><symbol id="logo-mobile" viewBox="0 0 67 16">
<path d="M0.52 4.36C0.52 3.22667 0.793333 2.36 1.34 1.76C1.88667 1.14667 2.69333 0.84 3.76 0.84C4.82667 0.84 5.63333 1.14667 6.18 1.76C6.72667 2.36 7 3.22667 7 4.36V4.8H4.92V4.22C4.92 3.3 4.55333 2.84 3.82 2.84C3.08667 2.84 2.72 3.3 2.72 4.22C2.72 4.74 2.86667 5.23333 3.16 5.7C3.45333 6.15333 3.80667 6.56667 4.22 6.94C4.64667 7.31333 5.07333 7.70667 5.5 8.12C5.92667 8.52 6.28667 9.02667 6.58 9.64C6.87333 10.24 7.02 10.9067 7.02 11.64C7.02 12.7733 6.74 13.6467 6.18 14.26C5.62 14.86 4.80667 15.16 3.74 15.16C2.67333 15.16 1.86 14.86 1.3 14.26C0.74 13.6467 0.46 12.7733 0.46 11.64V10.78H2.54V11.78C2.54 12.6867 2.92 13.14 3.68 13.14C4.44 13.14 4.82 12.6867 4.82 11.78C4.82 11.26 4.67333 10.7733 4.38 10.32C4.08667 9.85333 3.72667 9.43333 3.3 9.06C2.88667 8.68667 2.46667 8.3 2.04 7.9C1.61333 7.48667 1.25333 6.98 0.96 6.38C0.666667 5.76667 0.52 5.09333 0.52 4.36ZM8.58047 0.999999H10.7805V11.8C10.7805 12.7067 11.1605 13.16 11.9205 13.16C12.6805 13.16 13.0605 12.7067 13.0605 11.8V0.999999H15.1405V11.66C15.1405 12.7933 14.8605 13.6667 14.3005 14.28C13.7405 14.88 12.9271 15.18 11.8605 15.18C10.7938 15.18 9.98047 14.88 9.42047 14.28C8.86047 13.6667 8.58047 12.7933 8.58047 11.66V0.999999ZM20.2892 0.999999C22.4759 0.999999 23.5692 2.15333 23.5692 4.46V6.28C23.5692 8.58667 22.4759 9.74 20.2892 9.74H19.2492V15H17.0492V0.999999H20.2892ZM20.2892 3H19.2492V7.74H20.2892C20.6492 7.74 20.9159 7.64 21.0892 7.44C21.2759 7.24 21.3692 6.9 21.3692 6.42V4.32C21.3692 3.84 21.2759 3.5 21.0892 3.3C20.9159 3.1 20.6492 3 20.2892 3ZM27.1883 3V6.9H30.2083V8.9H27.1883V13H30.9883V15H24.9883V0.999999H30.9883V3H27.1883ZM39.5916 15H37.3516C37.2182 14.6 37.1516 14.0267 37.1516 13.28V11.08C37.1516 10.44 37.0382 9.98667 36.8116 9.72C36.5849 9.44 36.2182 9.3 35.7116 9.3H34.9516V15H32.7516V0.999999H36.0716C37.2049 0.999999 38.0316 1.26667 38.5516 1.8C39.0716 2.32 39.3316 3.12667 39.3316 4.22V5.32C39.3316 6.76 38.8516 7.70667 37.8916 8.16C38.8649 8.57333 39.3516 9.56667 39.3516 11.14V13.3C39.3516 14.06 39.4316 14.6267 39.5916 15ZM36.0116 3H34.9516V7.3H35.8116C36.2516 7.3 36.5782 7.18667 36.7916 6.96C37.0182 6.73333 37.1316 6.35333 37.1316 5.82V4.44C37.1316 3.48 36.7582 3 36.0116 3ZM44.4984 9.2V7.2H47.5784V11.64C47.5784 12.7733 47.2984 13.6467 46.7384 14.26C46.1784 14.86 45.3651 15.16 44.2984 15.16C43.2318 15.16 42.4184 14.86 41.8584 14.26C41.2984 13.6467 41.0184 12.7733 41.0184 11.64V4.36C41.0184 3.22667 41.2984 2.36 41.8584 1.76C42.4184 1.14667 43.2318 0.84 44.2984 0.84C45.3651 0.84 46.1784 1.14667 46.7384 1.76C47.2984 2.36 47.5784 3.22667 47.5784 4.36V5.72H45.4984V4.22C45.4984 3.3 45.1184 2.84 44.3584 2.84C43.5984 2.84 43.2184 3.3 43.2184 4.22V11.78C43.2184 12.6867 43.5984 13.14 44.3584 13.14C45.1184 13.14 45.4984 12.6867 45.4984 11.78V9.2H44.4984ZM51.1584 15V10.36L48.3784 0.999999H50.6784L52.3584 7.38L54.0384 0.999999H56.1384L53.3584 10.36V15H51.1584ZM60.4681 0.999999L62.0881 10.94L63.5881 0.999999H66.6481V15H64.5681V4.96L63.0481 15H60.9681L59.3281 5.1V15H57.4081V0.999999H60.4681Z" fill="white"/>
</symbol><symbol id="logo-tablet" viewBox="0 0 80 18">
<path d="M0.624 4.232C0.624 2.872 0.952 1.832 1.608 1.112C2.264 0.375999 3.232 0.0079999 4.512 0.0079999C5.792 0.0079999 6.76 0.375999 7.416 1.112C8.072 1.832 8.4 2.872 8.4 4.232V4.76H5.904V4.064C5.904 2.96 5.464 2.408 4.584 2.408C3.704 2.408 3.264 2.96 3.264 4.064C3.264 4.688 3.44 5.28 3.792 5.84C4.144 6.384 4.568 6.88 5.064 7.328C5.576 7.776 6.088 8.248 6.6 8.744C7.112 9.224 7.544 9.832 7.896 10.568C8.248 11.288 8.424 12.088 8.424 12.968C8.424 14.328 8.088 15.376 7.416 16.112C6.744 16.832 5.768 17.192 4.488 17.192C3.208 17.192 2.232 16.832 1.56 16.112C0.888 15.376 0.552 14.328 0.552 12.968V11.936H3.048V13.136C3.048 14.224 3.504 14.768 4.416 14.768C5.328 14.768 5.784 14.224 5.784 13.136C5.784 12.512 5.608 11.928 5.256 11.384C4.904 10.824 4.472 10.32 3.96 9.872C3.464 9.424 2.96 8.96 2.448 8.48C1.936 7.984 1.504 7.376 1.152 6.656C0.8 5.92 0.624 5.112 0.624 4.232ZM10.2966 0.199999H12.9366V13.16C12.9366 14.248 13.3926 14.792 14.3046 14.792C15.2166 14.792 15.6726 14.248 15.6726 13.16V0.199999H18.1686V12.992C18.1686 14.352 17.8326 15.4 17.1606 16.136C16.4886 16.856 15.5126 17.216 14.2326 17.216C12.9526 17.216 11.9766 16.856 11.3046 16.136C10.6326 15.4 10.2966 14.352 10.2966 12.992V0.199999ZM24.3471 0.199999C26.9711 0.199999 28.2831 1.584 28.2831 4.352V6.536C28.2831 9.304 26.9711 10.688 24.3471 10.688H23.0991V17H20.4591V0.199999H24.3471ZM24.3471 2.6H23.0991V8.288H24.3471C24.7791 8.288 25.0991 8.168 25.3071 7.928C25.5311 7.688 25.6431 7.28 25.6431 6.704V4.184C25.6431 3.608 25.5311 3.2 25.3071 2.96C25.0991 2.72 24.7791 2.6 24.3471 2.6ZM32.6259 2.6V7.28H36.2499V9.68H32.6259V14.6H37.1859V17H29.9859V0.199999H37.1859V2.6H32.6259ZM47.5099 17H44.8219C44.6619 16.52 44.5819 15.832 44.5819 14.936V12.296C44.5819 11.528 44.4459 10.984 44.1739 10.664C43.9019 10.328 43.4619 10.16 42.8539 10.16H41.9419V17H39.3019V0.199999H43.2859C44.6459 0.199999 45.6379 0.519999 46.2619 1.16C46.8859 1.784 47.1979 2.752 47.1979 4.064V5.384C47.1979 7.112 46.6219 8.248 45.4699 8.792C46.6379 9.288 47.2219 10.48 47.2219 12.368V14.96C47.2219 15.872 47.3179 16.552 47.5099 17ZM43.2139 2.6H41.9419V7.76H42.9739C43.5019 7.76 43.8939 7.624 44.1499 7.352C44.4219 7.08 44.5579 6.624 44.5579 5.984V4.328C44.5579 3.176 44.1099 2.6 43.2139 2.6ZM53.3981 10.04V7.64H57.0941V12.968C57.0941 14.328 56.7581 15.376 56.0861 16.112C55.4141 16.832 54.4381 17.192 53.1581 17.192C51.8781 17.192 50.9021 16.832 50.2301 16.112C49.5581 15.376 49.2221 14.328 49.2221 12.968V4.232C49.2221 2.872 49.5581 1.832 50.2301 1.112C50.9021 0.375999 51.8781 0.0079999 53.1581 0.0079999C54.4381 0.0079999 55.4141 0.375999 56.0861 1.112C56.7581 1.832 57.0941 2.872 57.0941 4.232V5.864H54.5981V4.064C54.5981 2.96 54.1421 2.408 53.2301 2.408C52.3181 2.408 51.8621 2.96 51.8621 4.064V13.136C51.8621 14.224 52.3181 14.768 53.2301 14.768C54.1421 14.768 54.5981 14.224 54.5981 13.136V10.04H53.3981ZM61.3901 17V11.432L58.0541 0.199999H60.8141L62.8301 7.856L64.8461 0.199999H67.3661L64.0301 11.432V17H61.3901ZM72.5618 0.199999L74.5058 12.128L76.3058 0.199999H79.9778V17H77.4818V4.952L75.6578 17H73.1618L71.1938 5.12V17H68.8898V0.199999H72.5618Z" fill="white"/>
</symbol></svg>

<svg xmlns="http://www.w3.org/2000/svg" xmlns:xlink="http://www.w3.org/1999/xlink"><symbol id="logo-desktop"><path d="M.676 5.168c0-1.473.355-2.6 1.066-3.38C2.452.991 3.502.592 4.888.592c1.387 0 2.435.399 3.146 1.196.71.78 1.066 1.907 1.066 3.38v.572H6.396v-.754c0-1.196-.477-1.794-1.43-1.794s-1.43.598-1.43 1.794c0 .676.19 1.317.572 1.924.381.59.84 1.127 1.378 1.612.555.485 1.11.997 1.664 1.534.555.52 1.023 1.179 1.404 1.976.381.78.572 1.647.572 2.6 0 1.473-.364 2.609-1.092 3.406-.728.78-1.785 1.17-3.172 1.17-1.387 0-2.444-.39-3.172-1.17-.728-.797-1.092-1.933-1.092-3.406v-1.118h2.704v1.3c0 1.179.494 1.768 1.482 1.768s1.482-.59 1.482-1.768a3.43 3.43 0 00-.572-1.898 7.405 7.405 0 00-1.404-1.638c-.537-.485-1.083-.988-1.638-1.508-.555-.537-1.023-1.196-1.404-1.976C.867 6.997.676 6.121.676 5.168zM11.155.8h2.86v14.04c0 1.179.494 1.768 1.482 1.768s1.482-.59 1.482-1.768V.8h2.704v13.858c0 1.473-.364 2.609-1.092 3.406-.728.78-1.786 1.17-3.172 1.17-1.387 0-2.444-.39-3.172-1.17-.728-.797-1.092-1.933-1.092-3.406V.8zm15.221 0c2.843 0 4.264 1.5 4.264 4.498v2.366c0 2.999-1.421 4.498-4.264 4.498h-1.352V19h-2.86V.8h4.212zm0 2.6h-1.352v6.162h1.352c.468 0 .815-.13 1.04-.39.243-.26.364-.702.364-1.326v-2.73c0-.624-.121-1.066-.364-1.326-.225-.26-.572-.39-1.04-.39zm8.969 0v5.07h3.926v2.6h-3.926v5.33h4.94V19h-7.8V.8h7.8v2.6h-4.94zM51.469 19h-2.912c-.173-.52-.26-1.265-.26-2.236v-2.86c0-.832-.147-1.421-.442-1.768-.295-.364-.771-.546-1.43-.546h-.988V19h-2.86V.8h4.316c1.473 0 2.548.347 3.224 1.04.676.676 1.014 1.725 1.014 3.146v1.43c0 1.872-.624 3.103-1.872 3.692 1.265.537 1.898 1.829 1.898 3.874v2.808c0 .988.104 1.725.312 2.21zM46.815 3.4h-1.378v5.59h1.118c.572 0 .997-.147 1.274-.442.295-.295.442-.789.442-1.482V5.272c0-1.248-.485-1.872-1.456-1.872zm11.033 8.06v-2.6h4.004v5.772c0 1.473-.364 2.609-1.092 3.406-.728.78-1.785 1.17-3.172 1.17-1.387 0-2.444-.39-3.172-1.17-.728-.797-1.092-1.933-1.092-3.406V5.168c0-1.473.364-2.6 1.092-3.38.728-.797 1.785-1.196 3.172-1.196 1.387 0 2.444.399 3.172 1.196.728.78 1.092 1.907 1.092 3.38v1.768h-2.704v-1.95c0-1.196-.494-1.794-1.482-1.794s-1.482.598-1.482 1.794v9.828c0 1.179.494 1.768 1.482 1.768s1.482-.59 1.482-1.768V11.46h-1.3zM66.506 19v-6.032L62.892.8h2.99l2.184 8.294L70.25.8h2.73l-3.614 12.168V19h-2.86zM78.609.8l2.106 12.922L82.665.8h3.978V19h-2.704V5.948L81.963 19h-2.704L77.127 6.13V19H74.63V.8h3.978z"/></symbol><symbol id="logo-mobile"><path d="M.52 4.36c0-1.133.273-2 .82-2.6.547-.613 1.353-.92 2.42-.92s1.873.307 2.42.92c.547.6.82 1.467.82 2.6v.44H4.92v-.58c0-.92-.367-1.38-1.1-1.38-.733 0-1.1.46-1.1 1.38 0 .52.147 1.013.44 1.48.293.453.647.867 1.06 1.24.427.373.853.767 1.28 1.18.427.4.787.907 1.08 1.52.293.6.44 1.267.44 2 0 1.133-.28 2.007-.84 2.62-.56.6-1.373.9-2.44.9s-1.88-.3-2.44-.9c-.56-.613-.84-1.487-.84-2.62v-.86h2.08v1c0 .907.38 1.36 1.14 1.36.76 0 1.14-.453 1.14-1.36a2.64 2.64 0 00-.44-1.46A5.697 5.697 0 003.3 9.06c-.413-.373-.833-.76-1.26-1.16A5.381 5.381 0 01.96 6.38a4.62 4.62 0 01-.44-2.02zM8.58 1h2.2v10.8c0 .907.38 1.36 1.14 1.36.76 0 1.14-.453 1.14-1.36V1h2.08v10.66c0 1.133-.28 2.007-.84 2.62-.56.6-1.373.9-2.44.9-1.066 0-1.88-.3-2.44-.9-.56-.613-.84-1.487-.84-2.62V1zm11.71 0c2.186 0 3.28 1.153 3.28 3.46v1.82c0 2.307-1.094 3.46-3.28 3.46h-1.04V15h-2.2V1h3.24zm0 2h-1.04v4.74h1.04c.36 0 .626-.1.8-.3.186-.2.28-.54.28-1.02v-2.1c0-.48-.094-.82-.28-1.02-.174-.2-.44-.3-.8-.3zm6.898 0v3.9h3.02v2h-3.02V13h3.8v2h-6V1h6v2h-3.8zm12.404 12h-2.24c-.134-.4-.2-.973-.2-1.72v-2.2c0-.64-.114-1.093-.34-1.36-.227-.28-.594-.42-1.1-.42h-.76V15h-2.2V1h3.32c1.133 0 1.96.267 2.48.8.52.52.78 1.327.78 2.42v1.1c0 1.44-.48 2.387-1.44 2.84.973.413 1.46 1.407 1.46 2.98v2.16c0 .76.08 1.327.24 1.7zm-3.58-12h-1.06v4.3h.86c.44 0 .766-.113.98-.34.226-.227.34-.607.34-1.14V4.44c0-.96-.374-1.44-1.12-1.44zm8.486 6.2v-2h3.08v4.44c0 1.133-.28 2.007-.84 2.62-.56.6-1.373.9-2.44.9-1.066 0-1.88-.3-2.44-.9-.56-.613-.84-1.487-.84-2.62V4.36c0-1.133.28-2 .84-2.6.56-.613 1.374-.92 2.44-.92 1.067 0 1.88.307 2.44.92.56.6.84 1.467.84 2.6v1.36h-2.08v-1.5c0-.92-.38-1.38-1.14-1.38-.76 0-1.14.46-1.14 1.38v7.56c0 .907.38 1.36 1.14 1.36.76 0 1.14-.453 1.14-1.36V9.2h-1zm6.66 5.8v-4.64L48.378 1h2.3l1.68 6.38L54.038 1h2.1l-2.78 9.36V15h-2.2zm9.31-14l1.62 9.94 1.5-9.94h3.06v14h-2.08V4.96L63.048 15h-2.08l-1.64-9.9V15h-1.92V1h3.06z"/></symbol><symbol id="logo-tablet"><path d="M.624 4.232c0-1.36.328-2.4.984-3.12C2.264.376 3.232.008 4.512.008c1.28 0 2.248.368 2.904 1.104.656.72.984 1.76.984 3.12v.528H5.904v-.696c0-1.104-.44-1.656-1.32-1.656-.88 0-1.32.552-1.32 1.656 0 .624.176 1.216.528 1.776.352.544.776 1.04 1.272 1.488.512.448 1.024.92 1.536 1.416.512.48.944 1.088 1.296 1.824.352.72.528 1.52.528 2.4 0 1.36-.336 2.408-1.008 3.144-.672.72-1.648 1.08-2.928 1.08s-2.256-.36-2.928-1.08C.888 15.376.552 14.328.552 12.968v-1.032h2.496v1.2c0 1.088.456 1.632 1.368 1.632.912 0 1.368-.544 1.368-1.632 0-.624-.176-1.208-.528-1.752A6.837 6.837 0 003.96 9.872c-.496-.448-1-.912-1.512-1.392a6.458 6.458 0 01-1.296-1.824 5.545 5.545 0 01-.528-2.424zM10.297.2h2.64v12.96c0 1.088.456 1.632 1.368 1.632.912 0 1.368-.544 1.368-1.632V.2h2.496v12.792c0 1.36-.336 2.408-1.008 3.144-.672.72-1.648 1.08-2.928 1.08s-2.256-.36-2.928-1.08c-.672-.736-1.008-1.784-1.008-3.144V.2zm14.05 0c2.624 0 3.936 1.384 3.936 4.152v2.184c0 2.768-1.312 4.152-3.936 4.152H23.1V17h-2.64V.2h3.888zm0 2.4H23.1v5.688h1.248c.432 0 .752-.12.96-.36.224-.24.336-.648.336-1.224v-2.52c0-.576-.112-.984-.336-1.224-.208-.24-.528-.36-.96-.36zm8.279 0v4.68h3.624v2.4h-3.624v4.92h4.56V17h-7.2V.2h7.2v2.4h-4.56zM47.51 17h-2.688c-.16-.48-.24-1.168-.24-2.064v-2.64c0-.768-.136-1.312-.408-1.632-.272-.336-.712-.504-1.32-.504h-.912V17h-2.64V.2h3.984c1.36 0 2.352.32 2.976.96.624.624.936 1.592.936 2.904v1.32c0 1.728-.576 2.864-1.728 3.408 1.168.496 1.752 1.688 1.752 3.576v2.592c0 .912.096 1.592.288 2.04zM43.214 2.6h-1.272v5.16h1.032c.528 0 .92-.136 1.176-.408.272-.272.408-.728.408-1.368V4.328c0-1.152-.448-1.728-1.344-1.728zm10.184 7.44v-2.4h3.696v5.328c0 1.36-.336 2.408-1.008 3.144-.672.72-1.648 1.08-2.928 1.08s-2.256-.36-2.928-1.08c-.672-.736-1.008-1.784-1.008-3.144V4.232c0-1.36.336-2.4 1.008-3.12.672-.736 1.648-1.104 2.928-1.104s2.256.368 2.928 1.104c.672.72 1.008 1.76 1.008 3.12v1.632h-2.496v-1.8c0-1.104-.456-1.656-1.368-1.656-.912 0-1.368.552-1.368 1.656v9.072c0 1.088.456 1.632 1.368 1.632.912 0 1.368-.544 1.368-1.632V10.04h-1.2zM61.39 17v-5.568L58.054.2h2.76l2.016 7.656L64.846.2h2.52L64.03 11.432V17h-2.64zM72.562.2l1.944 11.928L76.306.2h3.672V17h-2.496V4.952L75.658 17h-2.496L71.194 5.12V17H68.89V.2h3.672z" fill="#fff"/></symbol><symbol id="play-button"><path d="M9 6l-9 5.196V.804L9 6z" fill="#fff"/></symbol></svg>
